64x64/apps/QMPlay2.svg

<svg xmlns="http://www.w3.org/2000/svg" width="64" height="64" version="1">
 <path style="fill:#4f4f4f" d="M 9.0683381,4.0013414 A 4.9535396,4.3943464 0 0 0 3.9999999,8.3938878 l 0,47.2154242 a 4.9535396,4.3943464 0 0 0 7.4301091,3.802353 L 34.475828,47.611809 57.523547,35.807953 a 4.9535396,4.3943464 0 0 0 0,-7.610907 L 34.475828,16.39379 11.430109,4.5901342 A 4.9535396,4.3943464 0 0 0 9.0685381,4.0029414 Z"/>
 <path style="opacity:0.2" d="M 11.999902,15.000439 11.999902,51 30.919671,41.540115 47.999463,33.000219 30.919671,24.460324 11.999902,15.000439 Z"/>
 <path style="fill:#00e382" d="m 11.999902,14.000855 0,35.999561 L 30.919671,40.540532 47.999463,32.000636 30.919671,23.46074 11.999902,14.000855 Z"/>
 <path style="opacity:0.1;fill:#f4f4f7" d="M 9.0705744,4.0012146 A 4.9540755,4.3921679 0 0 0 4,8.3937524 L 4,9.3932988 A 4.9540755,4.3921679 0 0 1 9.0705744,5.000761 4.9540755,4.3921679 0 0 1 11.430072,5.5903372 L 34.478136,17.383813 57.528156,29.183145 A 4.9540755,4.3921679 0 0 1 59.965782,32.5 4.9540755,4.3921679 0 0 0 57.528156,28.183599 L 34.478136,16.384267 11.430072,4.5907908 A 4.9540755,4.3921679 0 0 0 9.0705744,4.0012146 Z"/>
 <path style="opacity:0.2" d="m 59.967747,32.5 a 4.9543475,4.3954322 0 0 1 -2.437711,3.303384 L 34.481161,47.608436 11.430333,59.411534 A 4.9543475,4.3954322 0 0 1 4,55.610007 l 0,1.000196 a 4.9543475,4.3954322 0 0 0 7.430333,3.801528 L 34.481161,48.608632 57.530036,36.80358 A 4.9543475,4.3954322 0 0 0 59.967747,32.5 Z"/>
</svg>

<svg xmlns="http://www.w3.org/2000/svg" width="64" height="64" version="1"><path style="fill:#4f4f4f" d="M9.068 4.001A4.954 4.394 0 0 0 4 8.394v47.215a4.954 4.394 0 0 0 7.43 3.803l23.046-11.8 23.048-11.804a4.954 4.394 0 0 0 0-7.611L34.476 16.394 11.43 4.59a4.954 4.394 0 0 0-2.361-.587z"/><path style="opacity:.2" d="M12 15v36l18.92-9.46L48 33l-17.08-8.54L12 15z"/><path style="fill:#00e382" d="M12 14v36l18.92-9.46L48 32l-17.08-8.54L12 14z"/><path style="opacity:.1;fill:#f4f4f7" d="M9.07 4.001A4.954 4.392 0 0 0 4 8.394v1A4.954 4.392 0 0 1 9.07 5a4.954 4.392 0 0 1 2.36.59l23.048 11.793 23.05 11.8a4.954 4.392 0 0 1 2.438 3.316 4.954 4.392 0 0 0-2.438-4.316l-23.05-11.8L11.43 4.591A4.954 4.392 0 0 0 9.07 4z"/><path style="opacity:.2" d="M59.968 32.5a4.954 4.395 0 0 1-2.438 3.303L34.481 47.608l-23.05 11.804A4.954 4.395 0 0 1 4 55.61v1a4.954 4.395 0 0 0 7.43 3.802l23.051-11.803L57.53 36.804a4.954 4.395 0 0 0 2.438-4.304z"/></svg>
